!!!PDT:	1923
!!!LANG: Non-Tone
!!!LING_GROUP: Siouan
!!!REG: Dakotas
!!!COM: Anon.
!!!OTL: I Do Not Fear
!!!ODT: <1918//
!!!MPN: Kekanatka [Crow's Heart]
!!!MLC: Fort Berthold Reservation, North Dakota, United States of America
!! Song was recorded during either the summer of 1912, 1915, or 1918.
!!!AGN: monody
!!!SOCIAL_FUNCTION: Mandan and Hidatsa War Songs
!!!AMT: irregular
!!!RWG: Transcribed pitches, durations, and meters are only approximate.
!! Drum not recorded.
**kern
*ICvox
*Imale
*clefG2
*k[b-e-]
*M2/4
*MM176
=1-
4b-
4b-
*M3/4
=2
4b-
4b-
4f
=3
2.b-
*M2/4
=4
2f
=5
4d
4B-
=6
2B-
=7
4f
4f
*M3/4
=8
4f
4d
=9
4f
4f
4f
=10
16d
[8.B-
2B-]
=11
4B-
2B-
=12
4d
4d
4c
*M2/4
=13
4B-
4B-
=14
[2B-
=15
2B-]
=16
[2B-
=17
2B-]
==
*-
!!!CNT: Mandan
!!!TXO: Mandan
!!!OCY: United States
!!!OCL: Frances Densmore
!!!YOR: Frances Densmore, "Mandan and Hidatsa Music",
!!!YOR: Bulletin 80, page 168, No. 100
!!!PPR: Smithsonian Institution, Bureau of American Ethnology
!!!PPR: Government Printing Office
!!!PDT: 1923
!!!PPP: Washington, DC, United States of America
!!!YEC: Electronic Copyright 2000 David Huron
!!!YER: August 2000
!!!YEN: United States of America
!!!ENC: David Huron
!!!RDT: August 18, 2000
!!!EEV: Release 1.0
!!!AIN: tom, vox
